assets/icons/tidal.svg

<?xml version="1.0" encoding="UTF-8" standalone="no"?>
<svg
   width="48"
   height="48"
   viewBox="0 0 384 512"
   fill="none"
   version="1.1"
   id="svg2"
   sodipodi:docname="tidal.svg"
   inkscape:version="1.4.2 (ebf0e940d0, 2025-05-08)"
   xmlns:inkscape="http://www.inkscape.org/namespaces/inkscape"
   xmlns:sodipodi="http://sodipodi.sourceforge.net/DTD/sodipodi-0.dtd"
   xmlns="http://www.w3.org/2000/svg"
   xmlns:svg="http://www.w3.org/2000/svg">
  <defs
     id="defs2" />
  <sodipodi:namedview
     id="namedview2"
     pagecolor="#ffffff"
     bordercolor="#000000"
     borderopacity="0.25"
     inkscape:showpageshadow="2"
     inkscape:pageopacity="0.0"
     inkscape:pagecheckerboard="0"
     inkscape:deskcolor="#d1d1d1"
     inkscape:zoom="18.393847"
     inkscape:cx="21.583304"
     inkscape:cy="22.942454"
     inkscape:window-width="1920"
     inkscape:window-height="993"
     inkscape:window-x="0"
     inkscape:window-y="0"
     inkscape:window-maximized="1"
     inkscape:current-layer="svg2" />
  <path
     d="m 193.33199,507.28401 c 138.4809,0 250.74249,-112.26159 250.74249,-250.74249 0,-138.4809 -112.26159,-250.7424835 -250.74249,-250.7424835 -138.480906,0 -250.742496,112.2615835 -250.742496,250.7424835 0,138.4809 112.26159,250.74249 250.742496,250.74249 z"
     fill="currentColor"
     id="path1"
     style="fill:#ffffff;fill-opacity:1;stroke-width:10.4476" />
  <path
     d="m 92.540818,181.31878 h 0.620588 c 3.02876,3.47487 6.309307,6.69482 9.600304,9.92522 h 0.001 c 1.85341,1.81893 3.70995,3.64203 5.52783,5.51425 l 34.29217,34.29216 v 0.62164 c -8.27341,8.2348 -16.52702,16.50721 -24.78167,24.78067 -8.31003,8.32987 -16.62005,16.65975 -24.949928,24.94992 -8.340322,-8.30062 -16.661839,-16.62214 -24.982308,-24.94261 -8.32152,-8.32152 -16.64199,-16.64199 -24.98221,-24.94365 0.58204,-1.10954 1.52222,-1.96624 2.45477,-2.81668 l 1.1e-4,-0.001 c 0.43733,-0.39805 0.87289,-0.7961 1.26917,-1.21714 6.11436,-6.17558 12.26486,-12.31459 18.41432,-18.45047 v -0.001 c 9.2221,-9.20329 18.438976,-18.40136 27.515854,-27.71122 z m 150.834142,49.0912 c 4.82053,-4.70247 9.56897,-9.47807 14.3174,-14.25262 3.32756,-3.34533 6.65408,-6.69065 10.00463,-10.0109 2.93682,-2.96503 5.89349,-5.89976 8.84912,-8.8324 l 0.002,-0.003 10e-4,-0.001 c 5.31888,-5.27918 10.63357,-10.55522 15.81976,-15.9911 h 0.62059 c 1.97564,2.37056 4.16964,4.52067 6.36468,6.66975 1.25476,1.22863 2.50847,2.45727 3.72144,3.72666 l 12.52458,12.52354 25.10455,25.10559 c 0.17552,0.19641 0.38134,0.38761 0.59238,0.58298 0.53701,0.49626 1.10327,1.01968 1.26938,1.74475 -8.14586,7.9192 -16.16335,15.98475 -24.18607,24.05552 h -0.001 v 0 c -8.55972,8.60987 -17.12467,17.22601 -25.85469,25.67499 l -47.71424,-47.71421 c -0.23403,-0.25701 -0.48895,-0.49208 -0.74074,-0.7261 h -0.001 c -0.25183,-0.23299 -0.50048,-0.46492 -0.72511,-0.71253 -0.21313,0.22776 -0.44402,0.44193 -0.67491,0.65506 -0.16925,0.15672 -0.33746,0.31343 -0.49835,0.47328 -7.9872,7.95063 -15.95663,15.91901 -23.92606,23.88845 l -0.003,0.003 c -8.05096,8.05095 -16.10293,16.10188 -24.17266,24.13295 -7.44809,-7.34362 -14.83559,-14.74993 -22.22205,-22.15623 v 0 c -9.23359,-9.25762 -18.46718,-18.51525 -27.81988,-27.65272 8.59838,-8.96718 17.43496,-17.76197 26.2705,-26.55467 v 0 c 7.90466,-7.86705 15.80827,-15.73305 23.53845,-23.72024 h 0.62059 c 0.46701,0.69894 0.93088,1.31953 1.55147,1.94012 6.42841,6.36572 12.81921,12.76906 19.2121,19.17448 9.33911,9.35688 18.68345,18.71793 28.15524,27.9766 z m -82.4995,84.87215 c -5.46618,5.45678 -10.92923,10.91148 -16.38393,16.36513 -0.0773,0.15566 -0.15462,0.34999 -0.23194,0.54327 -0.0784,0.19433 -0.15566,0.3876 -0.23298,0.54327 8.47823,8.36122 16.8687,16.76736 25.26962,25.18291 2.74563,2.7519 5.49335,5.50379 8.24525,8.25569 2.29743,2.20027 4.54157,4.48203 6.78676,6.76483 3.13951,3.19174 6.28319,6.38766 9.58464,9.37254 2.3716,-2.09265 4.66067,-4.4371 6.9487,-6.78154 1.52848,-1.56609 3.05697,-3.13219 4.61052,-4.62306 6.00424,-5.96558 12.00952,-11.97087 18.01481,-17.97615 5.94364,-5.9426 11.88624,-11.88519 17.82883,-17.79018 0.29671,-0.34999 0.63104,-0.66342 0.96432,-0.97476 0.62476,-0.58507 1.24222,-1.16386 1.59639,-1.97355 -16.60333,-16.37035 -33.05099,-32.89532 -49.4997,-49.42134 l -0.69686,-0.3103 c -10.91565,10.9679 -21.86579,21.90131 -32.80443,32.82324 z"
     id="path2"
     style="stroke-width:10.4476;fill:#000000;fill-opacity:1" />
</svg>

<?xml version="1.0" encoding="UTF-8" standalone="no"?>
<svg
   width="48"
   height="48"
   viewBox="0 0 384 512"
   fill="currentColor"
   version="1.1"
   id="svg2"
   sodipodi:docname="tidal.svg"
   inkscape:version="1.4.2 (ebf0e940d0, 2025-05-08)"
   xmlns:inkscape="http://www.inkscape.org/namespaces/inkscape"
   xmlns:sodipodi="http://sodipodi.sourceforge.net/DTD/sodipodi-0.dtd"
   xmlns="http://www.w3.org/2000/svg"
   xmlns:svg="http://www.w3.org/2000/svg">
  <defs
     id="defs2" />
  <sodipodi:namedview
     id="namedview2"
     pagecolor="#ffffff"
     bordercolor="#000000"
     borderopacity="0.25"
     inkscape:showpageshadow="2"
     inkscape:pageopacity="0.0"
     inkscape:pagecheckerboard="0"
     inkscape:deskcolor="#d1d1d1"
     inkscape:zoom="8.7451628"
     inkscape:cx="-8.8048675"
     inkscape:cy="-0.8004425"
     inkscape:window-width="1920"
     inkscape:window-height="993"
     inkscape:window-x="0"
     inkscape:window-y="0"
     inkscape:window-maximized="1"
     inkscape:current-layer="svg2" />
  <path
     id="path1"
     d="M 193.33333 5.7916667 C 54.852427 5.7916667 -57.416667 118.06077 -57.416667 256.54167 C -57.416667 395.02257 54.852427 507.29167 193.33333 507.29167 C 331.81423 507.29167 444.08333 395.02257 444.08333 256.54167 C 444.08333 118.06077 331.81423 5.7916667 193.33333 5.7916667 z M 92.541667 181.3125 L 93.166667 181.3125 C 96.195427 184.78737 99.479836 188.0196 102.77083 191.25 C 104.62424 193.06893 106.47379 194.87778 108.29167 196.75 L 142.58333 231.04167 L 142.58333 231.66667 C 134.30992 239.90147 126.04632 248.18487 117.79167 256.45833 C 109.48164 264.7882 101.18404 273.10566 92.854167 281.39583 C 84.513845 273.09521 76.195469 264.7788 67.875 256.45833 C 59.55348 248.13681 51.236053 239.82249 42.895833 231.52083 C 43.477873 230.41129 44.400783 229.55877 45.333333 228.70833 C 45.770663 228.31028 46.207887 227.90021 46.604167 227.47917 C 52.718527 221.30359 58.871373 215.15671 65.020833 209.02083 C 74.242933 199.81754 83.464789 190.62236 92.541667 181.3125 z M 193.83333 181.3125 L 194.45833 181.3125 C 194.92534 182.01144 195.37941 182.62941 196 183.25 C 202.42841 189.61572 208.83628 196.03208 215.22917 202.4375 C 224.56826 211.79436 233.90323 221.15801 243.375 230.41667 C 248.19553 225.7142 252.93907 220.94122 257.6875 216.16667 C 261.01506 212.82134 264.33695 209.46608 267.6875 206.14583 C 270.62432 203.1808 273.58604 200.24514 276.54167 197.3125 C 281.86055 192.03332 287.18881 186.74838 292.375 181.3125 L 292.97917 181.3125 C 294.95481 183.68306 297.15913 185.83009 299.35417 187.97917 C 300.60893 189.2078 301.87036 190.43894 303.08333 191.70833 L 315.60417 204.22917 L 340.70833 229.35417 C 340.88385 229.55058 341.08063 229.74213 341.29167 229.9375 C 341.82868 230.43376 342.39639 230.9416 342.5625 231.66667 C 334.41664 239.58587 326.39772 247.6584 318.375 255.72917 C 309.81528 264.33904 301.25085 272.94685 292.52083 281.39583 L 244.8125 233.6875 C 244.57847 233.43049 244.31429 233.19235 244.0625 232.95833 C 243.81067 232.72534 243.55796 232.49761 243.33333 232.25 C 243.1202 232.47776 242.89756 232.6827 242.66667 232.89583 C 242.49742 233.05255 242.32756 233.21515 242.16667 233.375 C 234.17947 241.32563 226.21943 249.30139 218.25 257.27083 C 210.19904 265.32178 202.13223 273.36476 194.0625 281.39583 C 186.61441 274.05221 179.24063 266.6563 171.85417 259.25 C 162.62058 249.99238 153.37353 240.7208 144.02083 231.58333 C 152.61921 222.61615 161.45613 213.83437 170.29167 205.04167 C 178.19633 197.17462 186.10315 189.29969 193.83333 181.3125 z M 193.6875 282.45833 L 194.375 282.77083 C 210.82371 299.29685 227.27167 315.81715 243.875 332.1875 C 243.52083 332.99719 242.89559 333.5816 242.27083 334.16667 C 241.93755 334.47801 241.60921 334.79584 241.3125 335.14583 C 235.36991 341.05082 229.42281 346.9949 223.47917 352.9375 C 217.47388 358.94278 211.48341 364.93025 205.47917 370.89583 C 203.92562 372.3867 202.38265 373.95474 200.85417 375.52083 C 198.56614 377.86527 196.28827 380.21985 193.91667 382.3125 C 190.61522 379.32762 187.47284 376.12924 184.33333 372.9375 C 182.08814 370.6547 179.8391 368.36694 177.54167 366.16667 C 174.78977 363.41477 172.0373 360.66857 169.29167 357.91667 C 160.89075 349.50112 152.49906 341.09039 144.02083 332.72917 C 144.09815 332.5735 144.1716 332.38183 144.25 332.1875 C 144.32732 331.99422 144.4227 331.80149 144.5 331.64583 C 149.9547 326.19218 155.40882 320.74845 160.875 315.29167 C 171.81364 304.36974 182.77185 293.42623 193.6875 282.45833 z " />
</svg>
